_includes/icons/color-server.svg

<svg fill="#666" height="50" viewBox="0 0 48 48" width="50" xmlns="http://www.w3.org/2000/svg"><path d="m13 4h23v40h-23z" fill="#2196f3"/><g fill="#37474f"><path d="m15 6h19v4h-19z"/><path d="m15 12h19v4h-19z"/><path d="m15 18h19v4h-19z"/><path d="m15 24h19v4h-19z"/></g><path d="m27 38c0 1.105469-.894531 2-2 2s-2-.894531-2-2 .894531-2 2-2 2 .894531 2 2z" fill="#bbdefb"/><g fill="#76ff03"><path d="m32 8c0 .550781-.449219 1-1 1s-1-.449219-1-1 .449219-1 1-1 1 .449219 1 1z"/><path d="m32 14c0 .550781-.449219 1-1 1s-1-.449219-1-1 .449219-1 1-1 1 .449219 1 1z"/><path d="m32 20c0 .550781-.449219 1-1 1s-1-.449219-1-1 .449219-1 1-1 1 .449219 1 1z"/><path d="m32 26c0 .550781-.449219 1-1 1s-1-.449219-1-1 .449219-1 1-1 1 .449219 1 1z"/></g></svg>

<svg xmlns="http://www.w3.org/2000/svg" viewBox="0 0 48 48" width="50" height="50" fill="#666"><path d="M 13 4 L 36 4 L 36 44 L 13 44 Z" fill="#2196f3"/><path d="M 15 6 L 34 6 L 34 10 L 15 10 Z" fill="#37474f"/><path d="M 15 12 L 34 12 L 34 16 L 15 16 Z" fill="#37474f"/><path d="M 15 18 L 34 18 L 34 22 L 15 22 Z" fill="#37474f"/><path d="M 15 24 L 34 24 L 34 28 L 15 28 Z" fill="#37474f"/><path d="M 27 38 C 27 39.105469 26.105469 40 25 40 C 23.894531 40 23 39.105469 23 38 C 23 36.894531 23.894531 36 25 36 C 26.105469 36 27 36.894531 27 38 Z" fill="#bbdefb"/><path d="M 32 8 C 32 8.550781 31.550781 9 31 9 C 30.449219 9 30 8.550781 30 8 C 30 7.449219 30.449219 7 31 7 C 31.550781 7 32 7.449219 32 8 Z" fill="#76ff03"/><path d="M 32 14 C 32 14.550781 31.550781 15 31 15 C 30.449219 15 30 14.550781 30 14 C 30 13.449219 30.449219 13 31 13 C 31.550781 13 32 13.449219 32 14 Z" fill="#76ff03"/><path d="M 32 20 C 32 20.550781 31.550781 21 31 21 C 30.449219 21 30 20.550781 30 20 C 30 19.449219 30.449219 19 31 19 C 31.550781 19 32 19.449219 32 20 Z" fill="#76ff03"/><path d="M 32 26 C 32 26.550781 31.550781 27 31 27 C 30.449219 27 30 26.550781 30 26 C 30 25.449219 30.449219 25 31 25 C 31.550781 25 32 25.449219 32 26 Z" fill="#76ff03"/></svg>
